src/assets/selectIcons/lanterna.svg

<svg xmlns="http://www.w3.org/2000/svg" viewBox="0 0 512 512"><path d="M0 0h512v512H0z"/><path fill="#fff" d="M256 24c-10.1 0-19.2 1.92-26.7 5.64C221.9 33.35 215 39.72 215 49s6.9 15.65 14.3 19.36c5.2 2.58 11.2 4.27 17.7 5.08v11.28h18V73.44c6.5-.81 12.5-2.5 17.7-5.08C290.1 64.65 297 58.28 297 49s-6.9-15.65-14.3-19.36C275.2 25.92 266.1 24 256 24zm0 18c7.6 0 14.4 1.66 18.6 3.74 3.3 1.63 4.1 2.97 4.3 3.26.1-.1.1-.1.1 0s0 .1-.1 0c-.2.29-1 1.63-4.3 3.26-4.2 2.08-11 3.74-18.6 3.74-7.6 0-14.4-1.66-18.6-3.74-3.3-1.63-4.1-2.97-4.3-3.26-.1.1-.1.1-.1 0s0-.1.1 0c.2-.29 1-1.63 4.3-3.26 4.2-2.08 11-3.74 18.6-3.74zm-40.9 60.7L203.4 152h105.2l-11.7-49.3zm-18.9 1.7c-6.7.3-13.2.8-19.5 1.7-14.9 2.1-28.9 6.4-39.1 16.5-3.1 3.2-3.9 5.8-5.2 9.3-1.3 3.5-2.5 7.7-3.8 12.6-2.4 9.8-4.9 22.6-7.5 37.5-5 29.8-10 67.9-14.1 106.1-4 38.1-7 76.2-7.99 106.1-.51 14.9-.53 27.7.13 37.7.33 5 .82 9.2 1.56 12.9.8 3.7 1.3 6.9 4.9 10.6 7.1 7 15.4 11 24 13.3l6.8-16.9c-6.9-1.5-12.5-4-17.3-8.5-.1-.4-.5-1.1-.8-2.2-.4-2.3-.9-5.9-1.2-10.4-.6-8.9-.6-21.3-.1-35.9 1-29.1 4-67 8-104.9 3.9-37.8 8.9-75.7 13.9-104.9 2.4-14.6 4.9-27.1 7.2-36.1 1.1-4.5 2.2-8.2 3.2-10.7.6-1.8 1.4-3 1.5-3.1 5.9-5.7 15.7-9.4 28.5-11.2 3.9-.6 8.2-1 12.5-1.2zm119.6 0l4.3 18.3c4.4.2 8.6.6 12.6 1.2 12.8 1.8 22.6 5.5 28.5 11.2.1.1.9 1.3 1.5 3.1 1 2.5 2.1 6.2 3.2 10.7 2.3 9 4.8 21.5 7.2 36.1 5 29.2 10 67.1 13.9 104.9 4 37.9 7 75.8 8 104.9.5 14.6.5 27-.1 35.9-.3 4.5-.8 8.1-1.2 10.4-.3 1.1-.7 1.8-.8 2.2-4.8 4.5-10.4 7-17.3 8.5l6.8 16.9c8.6-2.3 16.9-6.3 24-13.3 3.6-3.7 4.1-6.9 4.9-10.6.7-3.7 1.2-7.9 1.6-12.9.6-10 .6-22.8.1-37.7-1-29.9-4-68-8-106.1-4.1-38.2-9.1-76.3-14.1-106.1-2.6-14.9-5.1-27.7-7.5-37.5-1.3-4.9-2.5-9.1-3.8-12.6-1.3-3.5-2.1-6.1-5.2-9.3-10.2-10.1-24.2-14.4-39.1-16.5-6.3-.9-12.9-1.4-19.5-1.7zM213.2 170c-2.9 4.9-11.6 19.8-21.6 41.1 21.9 10.3 43.8 25.6 64.4 42.7 20.7-17.1 42.5-32.4 64.4-42.7-10-21.3-18.7-36.2-21.6-41.1zm-28.8 57.7c-10 24.5-17.6 51.3-15.5 68.2 1 7.7 7.3 19.6 15.1 31 15.6-19.6 35.7-41.2 58.1-61.2-18.9-15.4-38.9-28.9-57.7-38zm143.2 0c-18.8 9.2-38.8 22.6-57.7 38 22.4 20.1 42.5 41.7 58.1 61.2 7.8-11.4 14.1-23.3 15.1-31 2.1-16.9-5.5-43.7-15.5-68.2zM256 277.5c-23.7 21-45.2 44.2-60.7 64.2 7.8 9.4 13.9 15.6 16.5 18.3h88.4c2.6-2.7 8.7-8.9 16.5-18.3-15.5-19.9-37-43.3-60.7-64.2zM225.4 378c2.3 4.8 3.6 9.8 3.6 15 0 5.2-1.3 10.2-3.6 15h61.2c-2.3-4.8-3.6-9.8-3.6-15 0-5.2 1.3-10.2 3.6-15zm-59.3 48l-24.8 62h229.4l-24.8-62z"/></svg>

<?xml version="1.0" encoding="UTF-8" standalone="no"?>
<!DOCTYPE svg PUBLIC "-//W3C//DTD SVG 1.1//EN" "http://www.w3.org/Graphics/SVG/1.1/DTD/svg11.dtd">
<svg width="100%" height="100%" viewBox="0 0 512 512" version="1.1" xmlns="http://www.w3.org/2000/svg" xmlns:xlink="http://www.w3.org/1999/xlink" xml:space="preserve" xmlns:serif="http://www.serif.com/" style="fill-rule:evenodd;clip-rule:evenodd;stroke-linejoin:round;stroke-miterlimit:2;">
    <rect x="0" y="0" width="512" height="512" style="fill-rule:nonzero;"/>
    <path d="M256,24C245.9,24 236.8,25.92 229.3,29.64C221.9,33.35 215,39.72 215,49C215,58.28 221.9,64.65 229.3,68.36C234.5,70.94 240.5,72.63 247,73.44L247,84.72L265,84.72L265,73.44C271.5,72.63 277.5,70.94 282.7,68.36C290.1,64.65 297,58.28 297,49C297,39.72 290.1,33.35 282.7,29.64C275.2,25.92 266.1,24 256,24ZM256,42C263.6,42 270.4,43.66 274.6,45.74C277.9,47.37 278.7,48.71 278.9,49C279,48.9 279,48.9 279,49C279,49.1 279,49.1 278.9,49C278.7,49.29 277.9,50.63 274.6,52.26C270.4,54.34 263.6,56 256,56C248.4,56 241.6,54.34 237.4,52.26C234.1,50.63 233.3,49.29 233.1,49C233,49.1 233,49.1 233,49C233,48.9 233,48.9 233.1,49C233.3,48.71 234.1,47.37 237.4,45.74C241.6,43.66 248.4,42 256,42ZM215.1,102.7L203.4,152L308.6,152L296.9,102.7L215.1,102.7ZM196.2,104.4C189.5,104.7 183,105.2 176.7,106.1C161.8,108.2 147.8,112.5 137.6,122.6C134.5,125.8 133.7,128.4 132.4,131.9C131.1,135.4 129.9,139.6 128.6,144.5C126.2,154.3 123.7,167.1 121.1,182C116.1,211.8 111.1,249.9 107,288.1C103,326.2 100,364.3 99.01,394.2C98.5,409.1 98.48,421.9 99.14,431.9C99.47,436.9 99.96,441.1 100.7,444.8C101.5,448.5 102,451.7 105.6,455.4C112.7,462.4 121,466.4 129.6,468.7L136.4,451.8C129.5,450.3 123.9,447.8 119.1,443.3C119,442.9 118.6,442.2 118.3,441.1C117.9,438.8 117.4,435.2 117.1,430.7C116.5,421.8 116.5,409.4 117,394.8C118,365.7 121,327.8 125,289.9C128.9,252.1 133.9,214.2 138.9,185C141.3,170.4 143.8,157.9 146.1,148.9C147.2,144.4 148.3,140.7 149.3,138.2C149.9,136.4 150.7,135.2 150.8,135.1C156.7,129.4 166.5,125.7 179.3,123.9C183.2,123.3 187.5,122.9 191.8,122.7L196.2,104.4ZM315.8,104.4L320.1,122.7C324.5,122.9 328.7,123.3 332.7,123.9C345.5,125.7 355.3,129.4 361.2,135.1C361.3,135.2 362.1,136.4 362.7,138.2C363.7,140.7 364.8,144.4 365.9,148.9C368.2,157.9 370.7,170.4 373.1,185C378.1,214.2 383.1,252.1 387,289.9C391,327.8 394,365.7 395,394.8C395.5,409.4 395.5,421.8 394.9,430.7C394.6,435.2 394.1,438.8 393.7,441.1C393.4,442.2 393,442.9 392.9,443.3C388.1,447.8 382.5,450.3 375.6,451.8L382.4,468.7C391,466.4 399.3,462.4 406.4,455.4C410,451.7 410.5,448.5 411.3,444.8C412,441.1 412.5,436.9 412.9,431.9C413.5,421.9 413.5,409.1 413,394.2C412,364.3 409,326.2 405,288.1C400.9,249.9 395.9,211.8 390.9,182C388.3,167.1 385.8,154.3 383.4,144.5C382.1,139.6 380.9,135.4 379.6,131.9C378.3,128.4 377.5,125.8 374.4,122.6C364.2,112.5 350.2,108.2 335.3,106.1C329,105.2 322.4,104.7 315.8,104.4ZM225.4,378C227.7,382.8 229,387.8 229,393C229,398.2 227.7,403.2 225.4,408L286.6,408C284.3,403.2 283,398.2 283,393C283,387.8 284.3,382.8 286.6,378L225.4,378ZM166.1,426L141.3,488L370.7,488L345.9,426L166.1,426Z" style="fill:rgb(128,124,124);fill-rule:nonzero;"/>
    <path d="M213.2,170L298.8,170C301.7,174.9 310.4,189.8 320.4,211.1C298.5,221.4 276.7,236.7 256,253.8C235.4,236.7 213.5,221.4 191.6,211.1C201.6,189.8 210.3,174.9 213.2,170ZM184.4,227.7C203.2,236.8 223.2,250.3 242.1,265.7C219.7,285.7 199.6,307.3 184,326.9C176.2,315.5 169.9,303.6 168.9,295.9C166.8,279 174.4,252.2 184.4,227.7ZM327.6,227.7C337.6,252.2 345.2,279 343.1,295.9C342.1,303.6 335.8,315.5 328,326.9C312.4,307.4 292.3,285.8 269.9,265.7C288.8,250.3 308.8,236.9 327.6,227.7ZM256,277.5C279.7,298.4 301.2,321.8 316.7,341.7C308.9,351.1 302.8,357.3 300.2,360L211.8,360C209.2,357.3 203.1,351.1 195.3,341.7C210.8,321.7 232.3,298.5 256,277.5Z" style="fill:url(#_Radial1);"/>
    <defs>
        <radialGradient id="_Radial1" cx="0" cy="0" r="1" gradientUnits="userSpaceOnUse" gradientTransform="matrix(87.4509,0,0,95,256,265)"><stop offset="0" style="stop-color:rgb(207,85,5);stop-opacity:1"/><stop offset="0.49" style="stop-color:rgb(219,128,69);stop-opacity:1"/><stop offset="1" style="stop-color:white;stop-opacity:1"/></radialGradient>
    </defs>
</svg>
